SVG_Azure_Grouped/Data/Azure Synapse Analytics.svg

<?xml version="1.0" encoding="UTF-8" standalone="no"?>
<!-- Generated by Microsoft Visio, SVG Export Azure Synapse Analytics.svg Page-1 -->

<svg
   xmlns:dc="http://purl.org/dc/elements/1.1/"
   xmlns:cc="http://creativecommons.org/ns#"
   xmlns:rdf="http://www.w3.org/1999/02/22-rdf-syntax-ns#"
   xmlns:svg="http://www.w3.org/2000/svg"
   xmlns="http://www.w3.org/2000/svg"
   xmlns:xlink="http://www.w3.org/1999/xlink"
   xmlns:sodipodi="http://sodipodi.sourceforge.net/DTD/sodipodi-0.dtd"
   xmlns:inkscape="http://www.inkscape.org/namespaces/inkscape"
   width="0.66930187in"
   height="0.7874679in"
   viewBox="0 0 48.189619 56.697999"
   xml:space="preserve"
   class="st6"
   version="1.1"
   id="svg62"
   sodipodi:docname="Azure Synapse Analytics.svg"
   style="font-size:12px;overflow:visible;color-interpolation-filters:sRGB;fill:none;fill-rule:evenodd;stroke-linecap:square;stroke-miterlimit:3"
   inkscape:version="0.92.5 (2060ec1f9f, 2020-04-08)"><metadata
   id="metadata66"><rdf:RDF><cc:Work
       rdf:about=""><dc:format>image/svg+xml</dc:format><dc:type
         rdf:resource="http://purl.org/dc/dcmitype/StillImage" /></cc:Work></rdf:RDF></metadata><sodipodi:namedview
   pagecolor="#ffffff"
   bordercolor="#666666"
   borderopacity="1"
   objecttolerance="10"
   gridtolerance="10"
   guidetolerance="10"
   inkscape:pageopacity="0"
   inkscape:pageshadow="2"
   inkscape:window-width="640"
   inkscape:window-height="480"
   id="namedview64"
   showgrid="false"
   inkscape:zoom="1.4193119"
   inkscape:cx="32.125824"
   inkscape:cy="37.786193"
   inkscape:window-x="0"
   inkscape:window-y="0"
   inkscape:window-maximized="0"
   inkscape:current-layer="svg62" />
	<style
   type="text/css"
   id="style2">
	<![CDATA[
		.st1 {fill:#0078d4;stroke:none;stroke-linecap:butt;stroke-width:34}
		.st2 {fill:url(#grad0-8);stroke:none;stroke-linecap:butt;stroke-width:34}
		.st3 {fill:#50e6ff;stroke:none;stroke-linecap:butt;stroke-width:34}
		.st4 {fill:url(#grad0-16);stroke:none;stroke-linecap:butt;stroke-width:34}
		.st5 {fill:none;stroke:none;stroke-linecap:butt;stroke-width:34}
		.st6 {fill:none;fill-rule:evenodd;font-size:12px;overflow:visible;stroke-linecap:square;stroke-miterlimit:3}
	]]>
	</style>

	<defs
   id="Patterns_And_Gradients">
		<linearGradient
   id="grad0-8"
   x1="0"
   y1="181.69844"
   x2="28.580072"
   y2="181.69844"
   gradientTransform="scale(1.6861399,0.59307059)"
   gradientUnits="userSpaceOnUse">
			<stop
   offset="0.2"
   stop-color="#005ba1"
   stop-opacity="1"
   id="stop4" />
			<stop
   offset="1"
   stop-color="#0078d4"
   stop-opacity="1"
   id="stop6" />
		</linearGradient>
		<linearGradient
   id="grad0-16"
   x1="0"
   y1="0"
   x2="1"
   y2="0"
   gradientTransform="rotate(-90,0.5,0.5)">
			<stop
   offset="0"
   stop-color="#198ab3"
   stop-opacity="1"
   id="stop9" />
			<stop
   offset="0.35"
   stop-color="#32bedd"
   stop-opacity="1"
   id="stop11" />
			<stop
   offset="0.8"
   stop-color="#50e6ff"
   stop-opacity="1"
   id="stop13" />
		</linearGradient>
	<linearGradient
   inkscape:collect="always"
   xlink:href="#grad0-16"
   id="linearGradient4576"
   gradientTransform="scale(0.9871792,1.0129873)"
   x1="0"
   y1="111.60578"
   x2="11.504132"
   y2="111.60578"
   gradientUnits="userSpaceOnUse" /><linearGradient
   inkscape:collect="always"
   xlink:href="#grad0-16"
   id="linearGradient4578"
   gradientTransform="scale(0.9871792,1.0129873)"
   x1="0"
   y1="111.60578"
   x2="11.504132"
   y2="111.60578"
   gradientUnits="userSpaceOnUse" /></defs>
	<g
   id="g60"
   transform="translate(-34.000457,-33.9963)">
		<title
   id="title17">Page-1</title>
		<g
   id="group19547-1"
   transform="translate(34,-34.0157)">
			<title
   id="title19">Azure Synapse Analytics.19547</title>
			<g
   id="group19548-2">
				<title
   id="title21">arcadia_icon_1</title>
				<g
   id="shape19549-3">
					<title
   id="title23">path4</title>
					<path
   d="M 24.09,68.02 0,82.16 v 28.34 l 24.09,14.21 24.1,-14.14 V 82.22 Z M 43.74,107.61 24.09,119.26 4.45,107.73 V 84.96 L 24.09,73.31 43.74,84.99 Z"
   class="st1"
   id="path25"
   inkscape:connector-curvature="0"
   style="fill:#0078d4;stroke:none;stroke-width:34;stroke-linecap:butt" />
				</g>
				<g
   id="shape19550-5"
   transform="translate(0,-39.748)">
					<title
   id="title28">path6</title>
					<path
   d="M 24.09,107.76 0,121.91 l 4.45,2.8 19.64,-11.65 19.65,11.65 4.45,-2.8 z"
   class="st2"
   id="path30"
   inkscape:connector-curvature="0"
   style="fill:url(#grad0-8);stroke:none;stroke-width:34;stroke-linecap:butt" />
				</g>
				<g
   id="shape19551-9"
   transform="translate(14.1805,-20.189)">
					<title
   id="title33">path8</title>
					<path
   d="M 17.03,124.71 A 13.2596,13.6063 -180 0 0 1.07,114.66 L 0,110.06 a 17.8637,18.3307 0 0 1 21.49,13.58 z"
   class="st3"
   id="path35"
   inkscape:connector-curvature="0"
   style="fill:#50e6ff;stroke:none;stroke-width:34;stroke-linecap:butt" />
				</g>
				<g
   id="shape19552-11"
   transform="translate(7.55063,-7.08661)">
					<title
   id="title38">path10</title>
					<path
   d="m 28.02,108.08 a 2.27133,2.33071 -180 0 0 -3.07,-0.85 L 0,121.97 l 4.6,2.74 22.59,-13.39 a 2.33271,2.3937 -180 0 0 0.83,-3.24 z M 28.55,82.16 5.89,95.57 a 2.33271,2.3937 -180 0 0 -0.83,3.15 2.30202,2.3622 -180 0 0 2,1.17 2.11786,2.17323 -180 0 0 1.14,-0.32 l 24.98,-14.8 z"
   class="st3"
   id="path40"
   inkscape:connector-curvature="0"
   style="fill:#50e6ff;stroke:none;stroke-width:34;stroke-linecap:butt" />
				</g>
				<g
   id="shape19553-13"
   transform="translate(27.9005,-16.6929)">
					<title
   id="title43">circle12</title>
					<ellipse
   cx="5.6783199"
   cy="118.882"
   rx="5.6783199"
   ry="5.8267698"
   class="st4"
   id="ellipse45"
   style="fill:url(#linearGradient4576);stroke:none;stroke-width:34;stroke-linecap:butt" />
				</g>
				<g
   id="shape19554-17"
   transform="translate(8.93184,-28.3465)">
					<title
   id="title48">circle14</title>
					<ellipse
   cx="5.6783199"
   cy="118.882"
   rx="5.6783199"
   ry="5.8267698"
   class="st5"
   id="ellipse50"
   style="fill:none;stroke:none;stroke-width:34;stroke-linecap:butt" />
				</g>
				<g
   id="shape19555-19"
   transform="translate(9.33199,-28.4858)">
					<title
   id="title53">circle12-3</title>
					<ellipse
   cx="5.6783199"
   cy="118.882"
   rx="5.6783199"
   ry="5.8267698"
   class="st4"
   id="ellipse55"
   style="fill:url(#linearGradient4578);stroke:none;stroke-width:34;stroke-linecap:butt" />
				</g>
			</g>
		</g>
	</g>
</svg>

<?xml version="1.0" encoding="UTF-8" standalone="no"?>
<!DOCTYPE svg PUBLIC "-//W3C//DTD SVG 1.1//EN" "http://www.w3.org/Graphics/SVG/1.1/DTD/svg11.dtd">
<!-- Generated by Microsoft Visio, SVG Export Azure Synapse Analytics.svg Page-1 -->
<svg xmlns="http://www.w3.org/2000/svg" xmlns:xlink="http://www.w3.org/1999/xlink" xmlns:ev="http://www.w3.org/2001/xml-events"
		width="1.61374in" height="1.73206in" viewBox="0 0 116.189 124.709" xml:space="preserve" color-interpolation-filters="sRGB"
		class="st6">
	<style type="text/css">
	<![CDATA[
		.st1 {fill:#0078d4;stroke:none;stroke-linecap:butt;stroke-width:34}
		.st2 {fill:url(#grad0-8);stroke:none;stroke-linecap:butt;stroke-width:34}
		.st3 {fill:#50e6ff;stroke:none;stroke-linecap:butt;stroke-width:34}
		.st4 {fill:url(#grad0-16);stroke:none;stroke-linecap:butt;stroke-width:34}
		.st5 {fill:none;stroke:none;stroke-linecap:butt;stroke-width:34}
		.st6 {fill:none;fill-rule:evenodd;font-size:12px;overflow:visible;stroke-linecap:square;stroke-miterlimit:3}
	]]>
	</style>

	<defs id="Patterns_And_Gradients">
		<linearGradient id="grad0-8" x1="0" y1="0" x2="1" y2="0" gradientTransform="rotate(-90 0.5 0.5)">
			<stop offset="0.2" stop-color="#005ba1" stop-opacity="1"/>
			<stop offset="1" stop-color="#0078d4" stop-opacity="1"/>
		</linearGradient>
		<linearGradient id="grad0-16" x1="0" y1="0" x2="1" y2="0" gradientTransform="rotate(-90 0.5 0.5)">
			<stop offset="0" stop-color="#198ab3" stop-opacity="1"/>
			<stop offset="0.35" stop-color="#32bedd" stop-opacity="1"/>
			<stop offset="0.8" stop-color="#50e6ff" stop-opacity="1"/>
		</linearGradient>
	</defs>
	<g>
		<title>Page-1</title>
		<g id="group19098-1" transform="translate(34,-34.0157)">
			<title>Azure Synapse Analytics.19098</title>
			<g id="group19099-2">
				<title>arcadia_icon_1</title>
				<g id="shape19100-3">
					<title>path4</title>
					<path d="M24.09 68.02 L0 82.16 L0 110.5 L24.09 124.71 L48.19 110.57 L48.19 82.22 L24.09 68.02 ZM43.74 107.61
								 L24.09 119.26 L4.45 107.73 L4.45 84.96 L24.09 73.31 L43.74 84.99 L43.74 107.61 Z" class="st1"/>
				</g>
				<g id="shape19101-5" transform="translate(0,-39.748)">
					<title>path6</title>
					<path d="M24.09 107.76 L0 121.91 L4.45 124.71 L24.09 113.06 L43.74 124.71 L48.19 121.91 L24.09 107.76 Z"
							class="st2"/>
				</g>
				<g id="shape19102-9" transform="translate(14.1805,-20.189)">
					<title>path8</title>
					<path d="M17.03 124.71 A13.2596 13.6063 -180 0 0 1.07 114.66 L0 110.06 A17.8637 18.3307 0 0 1 21.49 123.64 L17.03
								 124.71 Z" class="st3"/>
				</g>
				<g id="shape19103-11" transform="translate(7.55063,-7.08661)">
					<title>path10</title>
					<path d="M28.02 108.08 A2.27133 2.33071 -180 0 0 24.95 107.23 L0 121.97 L4.6 124.71 L27.19 111.32 A2.33271 2.3937
								 -180 0 0 28.02 108.08 ZM28.55 82.16 L5.89 95.57 A2.33271 2.3937 -180 0 0 5.06 98.72 A2.30202 2.3622
								 -180 0 0 7.06 99.89 A2.11786 2.17323 -180 0 0 8.2 99.57 L33.18 84.77 L28.55 82.16 Z" class="st3"/>
				</g>
				<g id="shape19104-13" transform="translate(27.9005,-16.6929)">
					<title>circle12</title>
					<ellipse cx="5.67832" cy="118.882" rx="5.67832" ry="5.82677" class="st4"/>
				</g>
				<g id="shape19105-17" transform="translate(8.93184,-28.3465)">
					<title>circle14</title>
					<ellipse cx="5.67832" cy="118.882" rx="5.67832" ry="5.82677" class="st5"/>
				</g>
				<g id="shape19106-19" transform="translate(9.33199,-28.4858)">
					<title>circle12-3</title>
					<ellipse cx="5.67832" cy="118.882" rx="5.67832" ry="5.82677" class="st4"/>
				</g>
			</g>
		</g>
	</g>
</svg>
